public/img/productsPage/products/logo-1.svg

<svg width="240" height="47" viewBox="0 0 240 47" fill="none" xmlns="http://www.w3.org/2000/svg">
<path d="M16.8831 4.77441C24.8804 4.77441 30.8581 9.24662 32.7969 16.5648H23.8302C22.457 13.6375 19.872 12.2552 16.8023 12.2552C11.7939 12.2552 8.32039 15.9956 8.32039 22.0127C8.32039 28.0299 11.7939 31.7703 16.8023 31.7703C19.872 31.7703 22.457 30.3066 23.8302 27.4607H32.7969C30.8581 34.7789 24.8804 39.2511 16.8831 39.2511C6.94712 39.1697 0 32.0955 0 21.9314C0 11.7673 6.94712 4.77441 16.8831 4.77441Z" fill="#404041"/>
<path d="M49.1145 39.3329C41.2788 39.3329 35.3818 34.0476 35.3818 25.5097C35.3818 16.9719 41.4404 11.6865 49.2761 11.6865C57.1118 11.6865 63.1703 16.9719 63.1703 25.5097C63.1703 34.0476 56.9502 39.3329 49.1145 39.3329ZM49.1145 32.1774C52.0226 32.1774 54.7691 29.9819 54.7691 25.5097C54.7691 20.9562 52.1034 18.8421 49.1953 18.8421C46.2064 18.8421 43.6214 20.9562 43.6214 25.5097C43.7022 29.9819 46.1256 32.1774 49.1145 32.1774Z" fill="#404041"/>
<path d="M79.4075 39.333C71.5718 39.333 65.6748 34.0477 65.6748 25.5098C65.6748 16.972 71.7333 11.6866 79.569 11.6866C87.4047 11.6866 93.4633 16.972 93.4633 25.5098C93.4633 34.0477 87.2432 39.333 79.4075 39.333ZM79.4075 32.1775C82.3156 32.1775 85.0621 29.982 85.0621 25.5098C85.0621 20.9563 82.3964 18.8422 79.4883 18.8422C76.4994 18.8422 73.9144 20.9563 73.9144 25.5098C73.9144 29.982 76.4186 32.1775 79.4075 32.1775Z" fill="#404041"/>
<path d="M96.3711 4.77441H104.53V22.9885L112.608 12.0926H122.705L111.639 25.5092L122.867 38.9258H112.77L104.611 27.6233V38.9258H96.4519V4.77441H96.3711Z" fill="#404041"/>
<path d="M124.645 4.856C124.645 2.3353 126.583 0.383789 129.491 0.383789C132.399 0.383789 134.338 2.3353 134.338 4.856C134.338 7.29538 132.399 9.24689 129.491 9.24689C126.583 9.24689 124.645 7.29538 124.645 4.856ZM125.452 12.0115H133.611V38.8448H125.452V12.0115Z" fill="#404041"/>
<path d="M150.09 39.3329C142.254 39.3329 136.6 34.0476 136.6 25.5097C136.6 16.9719 142.173 11.6865 150.09 11.6865C157.845 11.6865 163.419 16.8905 163.419 25.1031C163.419 25.835 163.338 26.7294 163.257 27.5425H144.758C145.082 31.039 147.182 32.6652 149.848 32.6652C152.109 32.6652 153.402 31.5269 154.129 30.0632H162.853C161.48 35.2672 156.795 39.3329 150.09 39.3329ZM144.839 22.9077H155.098C155.098 19.9804 152.837 18.2729 150.09 18.2729C147.343 18.2729 145.324 19.8991 144.839 22.9077Z" fill="#404041"/>
<path d="M201.144 39.333C193.308 39.333 187.653 34.0477 187.653 25.5098C187.653 16.972 193.227 11.6866 201.144 11.6866C208.899 11.6866 214.472 16.8907 214.472 25.1033C214.472 25.8351 214.392 26.7295 214.311 27.5426H195.812C196.135 31.0391 198.236 32.6654 200.901 32.6654C203.163 32.6654 204.456 31.527 205.183 30.0633H213.907C212.534 35.2674 207.768 39.333 201.144 39.333ZM195.812 22.9078H206.071C206.071 19.9806 203.809 18.273 201.063 18.273C198.397 18.273 196.297 19.8992 195.812 22.9078Z" fill="#404041"/>
<path d="M229.255 39.3329C222.146 39.3329 217.38 35.3486 216.977 30.1445H225.055C225.216 32.0147 226.913 33.2344 229.174 33.2344C231.275 33.2344 232.406 32.2587 232.406 31.039C232.406 26.7294 217.865 29.8193 217.865 19.9804C217.865 15.4269 221.743 11.6865 228.69 11.6865C235.556 11.6865 239.433 15.5082 239.918 20.7936H232.325C232.082 19.0047 230.709 17.785 228.367 17.785C226.428 17.785 225.378 18.5168 225.378 19.8178C225.378 24.1274 239.837 21.0375 239.999 31.1203C240.08 35.7551 235.96 39.3329 229.255 39.3329Z" fill="#404041"/>
<path d="M171.901 12.5H163.419L171.174 26.9737H179.656L171.901 12.5Z" fill="#0056A7"/>
<path d="M171.013 26.5671L171.255 26.9737H179.737L174.163 16.8096L171.013 26.5671Z" fill="#2E3191"/>
<path d="M186.521 0.302734L171.254 26.9733H179.736L195.003 0.302734H186.521Z" fill="#0056A7"/>
<path d="M171.254 30.957H179.494V39.3323H171.254V30.957Z" fill="#0056A7"/>
</svg>

<svg width="240" height="47" fill="none" xmlns="http://www.w3.org/2000/svg"><path d="M16.883 4.774c7.997 0 13.975 4.473 15.914 11.79H23.83c-1.373-2.927-3.958-4.309-7.028-4.309-5.008 0-8.482 3.74-8.482 9.758 0 6.017 3.474 9.757 8.482 9.757 3.07 0 5.655-1.463 7.028-4.31h8.967c-1.939 7.319-7.917 11.791-15.914 11.791C6.947 39.17 0 32.096 0 21.931 0 11.767 6.947 4.774 16.883 4.774zm32.231 34.559c-7.835 0-13.732-5.285-13.732-13.823s6.058-13.824 13.894-13.824S63.17 16.973 63.17 25.51s-6.22 13.823-14.056 13.823zm0-7.156c2.909 0 5.655-2.195 5.655-6.667 0-4.554-2.666-6.668-5.574-6.668-2.989 0-5.574 2.114-5.574 6.668.081 4.472 2.505 6.667 5.493 6.667zm30.293 7.156c-7.835 0-13.732-5.285-13.732-13.823s6.058-13.823 13.894-13.823 13.894 5.285 13.894 13.823-6.22 13.823-14.055 13.823zm0-7.155c2.909 0 5.655-2.196 5.655-6.668 0-4.554-2.666-6.668-5.574-6.668-2.989 0-5.574 2.114-5.574 6.668 0 4.472 2.505 6.668 5.493 6.668zM96.371 4.774h8.159v18.214l8.078-10.895h10.097l-11.066 13.416 11.228 13.417H112.77l-8.159-11.303v11.303h-8.16V4.774h-.08zm28.274.082c0-2.52 1.938-4.472 4.846-4.472 2.908 0 4.847 1.951 4.847 4.472 0 2.44-1.939 4.39-4.847 4.39-2.908 0-4.846-1.95-4.846-4.39zm.807 7.155h8.159v26.834h-8.159V12.01zm24.638 27.322c-7.836 0-13.49-5.285-13.49-13.823s5.573-13.824 13.49-13.824c7.755 0 13.329 5.204 13.329 13.417 0 .732-.081 1.626-.162 2.44h-18.499c.324 3.496 2.424 5.122 5.09 5.122 2.261 0 3.554-1.138 4.281-2.602h8.724c-1.373 5.204-6.058 9.27-12.763 9.27zm-5.251-16.425h10.259c0-2.928-2.261-4.635-5.008-4.635s-4.766 1.626-5.251 4.635zm56.305 16.425c-7.836 0-13.491-5.285-13.491-13.823s5.574-13.823 13.491-13.823c7.755 0 13.328 5.204 13.328 13.416 0 .732-.08 1.627-.161 2.44h-18.499c.323 3.496 2.424 5.122 5.089 5.122 2.262 0 3.555-1.138 4.282-2.602h8.724c-1.373 5.204-6.139 9.27-12.763 9.27zm-5.332-16.425h10.259c0-2.927-2.262-4.635-5.008-4.635-2.666 0-4.766 1.626-5.251 4.635zm33.443 16.425c-7.109 0-11.875-3.984-12.278-9.188h8.078c.161 1.87 1.858 3.09 4.119 3.09 2.101 0 3.232-.976 3.232-2.196 0-4.31-14.541-1.22-14.541-11.059 0-4.553 3.878-8.293 10.825-8.293 6.866 0 10.743 3.821 11.228 9.107h-7.593c-.243-1.79-1.616-3.009-3.958-3.009-1.939 0-2.989.732-2.989 2.033 0 4.31 14.459 1.22 14.621 11.302.081 4.635-4.039 8.213-10.744 8.213z" fill="#404041"/><path d="M171.901 12.5h-8.482l7.755 14.474h8.482L171.901 12.5z" fill="#0056A7"/><path d="M171.013 26.567l.242.407h8.482l-5.574-10.164-3.15 9.757z" fill="#2E3191"/><path d="M186.521.303l-15.267 26.67h8.482L195.003.303h-8.482zm-15.267 30.654h8.24v8.375h-8.24v-8.375z" fill="#0056A7"/></svg>
